X:668
T:la Rochelle
M:2/4
L:1/8
K:DMix
a|\
affa| affa| bgec| d/c/d/e/ da| \
affa| affa| bgec| d2
d::
(e/d/)|\
cccc| dd de/f/| gggg| f/e/f/g/ ff| \
cccc| dd de/f/| gedc| d2d:|
